src/images/icons/feature-revenue.svg

<svg width="134px" height="134px" viewBox="0 0 134 134" xmlns="http://www.w3.org/2000/svg">
    <g stroke="none" stroke-width="1" fill="none" fill-rule="evenodd">
        <path d="M91,49 L91,75 L81,75 L81,74 L90,74 L90,50 L44,50 L44,60 L43,60 L43,49 L91,49 Z M87.5632721,51.0010222 C87.7444328,51.7033337 88.297527,52.2561797 88.9999808,52.4369863 L88.9999808,71.5630137 C88.2971927,71.7439063 87.7439063,72.2971927 87.5630137,72.9999808 L81,72.999 L81,60 L68.137,60 L68.1557273,57.1299091 L68.2051225,57.1378729 C68.4739435,57.1897195 68.7136452,57.2761304 68.9242276,57.3971058 L69.0767045,57.4943182 C69.4251894,57.7401094 69.6397423,58.0726945 69.7203634,58.4920735 L69.7443182,58.6534091 L71.7727273,58.6534091 C71.7613636,57.9981061 71.5776515,57.4176136 71.2215909,56.9119318 C70.8655303,56.40625 70.375947,56.0104167 69.7528409,55.7244318 C69.2855114,55.5099432 68.7611861,55.3758878 68.1798651,55.3222656 L68.1677273,55.3219091 L68.1761364,54 L66.9715909,54 L66.9627273,55.3259091 L66.6993075,55.3557795 C66.3240708,55.4094016 65.9701409,55.4987719 65.6375178,55.6238903 L65.3920455,55.7244318 C64.7481061,56.0104167 64.2395833,56.4109848 63.8664773,56.9261364 C63.4933712,57.4412879 63.3068182,58.0416667 63.3068182,58.7272727 C63.3068182,59.2070707 63.398796,59.6319331 63.5827516,60.00186 L45.001,60 L45.0010222,52.4367279 C45.7029994,52.2556534 46.2556534,51.7029994 46.4367279,51.0010222 L87.5632721,51.0010222 Z M66.932,60 L66.746,60 L66.7102273,59.9886364 C66.4753788,59.905303 66.2613636,59.8020833 66.0681818,59.6789773 C65.875,59.5558712 65.7225379,59.405303 65.6107955,59.2272727 C65.499053,59.0492424 65.4431818,58.8390152 65.4431818,58.5965909 C65.4469697,58.3049242 65.532197,58.0454545 65.6988636,57.8181818 C65.8655303,57.5909091 66.1060606,57.4109848 66.4204545,57.2784091 C66.5776515,57.2121212 66.7504735,57.1624053 66.9389205,57.1292614 L66.9507273,57.1279091 L66.932,60 Z" fill="#86D856"></path>
        <path d="M79,62 L79,81.5 L63,81.5 L63,80.75 L78.25,80.75 L78.25,62.75 L43.75,62.75 L43.75,74 L43,74 L43,62 L79,62 Z M76.4224162,63.5006196 C76.5582809,64.027553 76.9733009,64.4423267 77.5003754,64.57784 L77.5003754,78.92216 C76.9729692,79.0577586 76.5577586,79.4729692 76.42216,80.0003754 L63,80 L63.0003486,75.8486675 C63.0797998,75.8257415 63.157153,75.8006793 63.2324082,75.7734809 L63.4080789,75.7044922 C63.923134,75.4853516 64.317218,75.1802734 64.5903308,74.7892578 C64.8634436,74.3982422 65,73.9449219 65,73.4292969 C65,73.0483073 64.9257846,72.7160156 64.7773537,72.4324219 C64.6289228,72.1488281 64.427799,71.9067708 64.1739822,71.70625 C63.9201654,71.5057292 63.6336938,71.3395833 63.3145674,71.2078125 C63.1018165,71.1199653 62.8834582,71.044213 62.6594925,70.9805556 L62.3193384,70.8941406 L62.0249466,70.8232938 L62.0406209,68.3669938 L62.0793327,68.3730164 C62.2900117,68.4122253 62.4778696,68.4775736 62.6429061,68.5690613 L62.7624046,68.6425781 C63.03125,68.8255534 63.1983855,69.0721313 63.263811,69.382312 L63.2856234,69.5191406 L64.8753181,69.5191406 C64.8664122,69.0235677 64.7224343,68.5845703 64.4433842,68.2021484 C64.1643342,67.8197266 63.7806404,67.5203776 63.2923028,67.3041016 C62.9260496,67.1418945 62.515128,67.0405151 62.059538,66.9999634 L62.0500254,66.9996937 L62.0566158,66 L61.1125954,66 L61.1056489,67.0027187 L60.8992028,67.0253082 C60.6051242,67.06586 60.327744,67.1334462 60.0670623,67.228067 L59.8746819,67.3041016 C59.370017,67.5203776 58.9714801,67.8233073 58.6790712,68.2128906 C58.3866624,68.602474 58.240458,69.0565104 58.240458,69.575 C58.240458,70.2052083 58.4579092,70.7100911 58.8928117,71.0896484 C59.2733514,71.4217611 59.7749202,71.6798533 60.3975181,71.8639252 L60.6717557,71.9382813 L61.0727328,72.0385875 L61.06,74 L59.87,74 L59.8393059,73.9592448 C59.7410117,73.8121962 59.6757021,73.6422309 59.6433772,73.449349 L59.6253181,73.3003906 L58,73.3003906 C58.0101558,73.5502878 58.0448763,73.7839459 58.1041616,74.0013649 L44.5,74 L44.5006196,64.5775838 C45.0272214,64.4418046 45.4418046,64.0272214 45.5775838,63.5006196 L76.4224162,63.5006196 Z M62.015542,72.279075 L62.0815522,72.2975 C62.1991094,72.3330208 62.3101357,72.3702604 62.414631,72.4092187 L62.5664758,72.4689453 C62.8113868,72.570638 63.0021204,72.6966797 63.1386768,72.8470703 C63.2752332,72.9974609 63.3449958,73.1872396 63.3479644,73.4164063 C63.3449958,73.6684896 63.2663274,73.8883464 63.1119593,74.0759766 C63.0778358,74.1174527 63.0408474,74.1568992 63.0009941,74.1943161 L63,74 L62.004,74 L62.015542,72.279075 Z M61.0962443,68.3654813 L61.0821374,70.5858312 L60.9077608,70.5289063 C60.7237065,70.4658854 60.5559796,70.3878255 60.4045802,70.2947266 C60.2531807,70.2016276 60.1336938,70.0877604 60.0461196,69.953125 C59.9585454,69.8184896 59.9147583,69.6595052 59.9147583,69.4761719 C59.9177269,69.255599 59.9845208,69.059375 60.1151399,68.8875 C60.2457591,68.715625 60.4342663,68.5795573 60.6806616,68.4792969 C60.8038592,68.4291667 60.9393024,68.391569 61.0869911,68.3665039 L61.0962443,68.3654813 Z" fill="#A4D886"></path>
        <path d="M61,76 L61,85.75 L43,85.75 L43,76 L61,76 Z M60.625,76.375 L43.375,76.375 L43.375,85.375 L60.625,85.375 L60.625,76.375 Z M59.7113988,76.7510481 C59.7795069,77.0140813 59.9867665,77.2210967 60.2499398,77.2888562 L60.2499398,84.4611438 C59.9864371,84.5289881 59.7789881,84.7364371 59.7111438,84.9999398 L44.2888562,84.9999398 C44.2210967,84.7367665 44.0140813,84.5295069 43.7510481,84.4613988 L43.7510481,77.2886012 C44.0137521,77.2205784 44.2205784,77.0137521 44.2886012,76.7510481 L59.7113988,76.7510481 Z M52.3180662,78 L51.778626,78 L51.7746565,78.5469375 L51.6566873,78.559259 C51.4886424,78.5813782 51.3301394,78.6182434 51.1811784,78.6698547 L51.0712468,78.7113281 C50.7828668,78.8292969 50.5551315,78.9945312 50.3880407,79.2070312 C50.22095,79.4195313 50.1374046,79.6671875 50.1374046,79.95 C50.1374046,80.29375 50.2616624,80.5691406 50.5101781,80.7761719 C50.7172745,80.9486979 50.9871007,81.0846029 51.3196565,81.1838867 L51.5267176,81.2390625 L51.7558473,81.293775 L51.7464427,82.7103 L51.6816794,82.7001563 C51.6469042,82.6935938 51.6128923,82.6859375 51.5796438,82.6771875 L51.4821883,82.6476562 C51.3235793,82.5929687 51.1950806,82.5101562 51.0966921,82.3992188 C51.0229008,82.3160156 50.9729644,82.2169922 50.946883,82.1021484 L50.9287532,81.9820313 L50,81.9820313 C50.0135708,82.3007812 50.1039016,82.5710938 50.2709924,82.7929688 C50.4380831,83.0148437 50.6704835,83.1835938 50.9681934,83.2992187 C51.1914758,83.3859375 51.4450541,83.4401367 51.7289281,83.4618164 L51.7410687,83.4627 L51.7379135,84 L52.2773537,84 L52.2807125,83.46435 L52.2919926,83.4638021 C52.5519744,83.4460938 52.784626,83.4018229 52.9899475,83.3309896 L53.0903308,83.2933594 C53.384648,83.1738281 53.6098388,83.0074219 53.7659033,82.7941406 C53.9219678,82.5808594 54,82.3335938 54,82.0523438 C54,81.8445313 53.9575912,81.6632812 53.8727735,81.5085938 C53.7879559,81.3539062 53.673028,81.221875 53.5279898,81.1125 C53.3829517,81.003125 53.2192536,80.9125 53.0368957,80.840625 C52.9153237,80.7927083 52.7905475,80.7513889 52.6625671,80.7166667 L52.4681934,80.6695313 L52.2999695,80.6308875 L52.3089262,79.2910875 L52.3310472,79.2943726 C52.4514353,79.3157593 52.5587826,79.3514038 52.6530892,79.4013062 L52.721374,79.4414062 C52.8618321,79.5326563 52.9537065,79.6529063 52.9969975,79.8021562 L53.0203562,79.9195313 L53.9287532,79.9195313 C53.9236641,79.6492188 53.841391,79.4097656 53.6819338,79.2011719 C53.5224767,78.9925781 53.3032231,78.8292969 53.024173,78.7113281 C52.8148855,78.6228516 52.5800732,78.5675537 52.319736,78.5454346 L52.3143003,78.5452875 L52.3180662,78 Z M52.2945954,81.42495 L52.3323155,81.435 C52.3994911,81.454375 52.4629347,81.4746875 52.5226463,81.4959375 L52.6094148,81.5285156 C52.7493639,81.5839844 52.8583545,81.6527344 52.9363868,81.7347656 C53.014419,81.8167969 53.0542833,81.9203125 53.0559796,82.0453125 C53.0542833,82.1828125 53.0093299,82.3027344 52.9211196,82.4050781 C52.8329092,82.5074219 52.7111959,82.5871094 52.5559796,82.6441406 C52.4783715,82.6726563 52.3945081,82.694043 52.3043893,82.7083008 L52.2860865,82.7107125 L52.2945954,81.42495 Z M51.7692824,79.2902625 L51.7612214,80.5013625 L51.6615776,80.4703125 C51.5564037,80.4359375 51.4605598,80.3933594 51.3740458,80.3425781 C51.2875318,80.2917969 51.2192536,80.2296875 51.1692112,80.15625 C51.1191688,80.0828125 51.0941476,79.9960938 51.0941476,79.8960938 C51.0958439,79.7757812 51.1340119,79.66875 51.2086514,79.575 C51.2832909,79.48125 51.3910093,79.4070313 51.5318066,79.3523438 C51.6022053,79.325 51.6796014,79.3044922 51.7639949,79.2908203 L51.7692824,79.2902625 Z" fill="#C9D8C0"></path>
    </g>
</svg>

<svg xmlns="http://www.w3.org/2000/svg" viewBox="0 0 134 134">
  <g fill="none" fill-rule="evenodd">
    <path
      d="M91 49v26H81v-1h9V50H44v10h-1V49h48zm-3.437 2.001A2.004 2.004 0 0089 52.437v19.126A2.003 2.003 0 0087.563 73L81 72.999V60H68.137l.019-2.87.05.008c.268.052.508.138.718.26l.153.096c.348.246.563.579.643.998l.024.161h2.029a3.045 3.045 0 00-.551-1.741c-.356-.506-.846-.902-1.47-1.188a4.803 4.803 0 00-1.572-.402h-.012L68.176 54h-1.204l-.01 1.326-.263.03c-.375.053-.729.143-1.061.268l-.246.1c-.644.286-1.152.687-1.526 1.202-.373.515-.56 1.116-.56 1.801 0 .48.093.905.277 1.275L45 60v-7.563A2.004 2.004 0 0046.437 51h41.126zM66.932 60h-.186l-.036-.011a3.15 3.15 0 01-.642-.31 1.448 1.448 0 01-.457-.452 1.162 1.162 0 01-.168-.63c.004-.292.09-.552.256-.779.167-.227.407-.407.721-.54.158-.066.33-.116.519-.149l.012-.001L66.932 60z"
      fill="#86D856" />
    <path
      d="M79 62v19.5H63v-.75h15.25v-18h-34.5V74H43V62h36zm-2.578 1.5c.136.528.551.942 1.078 1.078v14.344c-.527.136-.942.551-1.078 1.078H63v-4.151c.08-.023.157-.048.232-.076l.176-.069c.515-.219.91-.524 1.182-.915.273-.39.41-.844.41-1.36a2.12 2.12 0 00-.223-.997 2.24 2.24 0 00-.603-.726c-.254-.2-.54-.366-.86-.498a6.046 6.046 0 00-.655-.227l-.34-.087-.294-.07.016-2.457.038.006c.211.04.399.105.564.196l.12.074c.268.183.435.43.5.74l.023.136h1.59a2.248 2.248 0 00-.433-1.317c-.279-.382-.662-.682-1.15-.898A3.874 3.874 0 0062.06 67h-.01l.007-1h-.944l-.007 1.003-.207.022c-.294.04-.571.108-.832.203l-.192.076c-.505.216-.904.52-1.196.909-.292.39-.439.844-.439 1.362 0 .63.218 1.135.653 1.515.38.332.882.59 1.505.774l.274.074.4.1L61.06 74h-1.19l-.03-.04a1.289 1.289 0 01-.197-.51l-.018-.15H58c.01.25.045.484.104.701L44.5 74v-9.422c.527-.136.942-.55 1.078-1.077h30.844zm-14.406 8.78l.066.017c.117.036.228.073.333.112l.151.06c.245.102.436.228.573.378.136.15.206.34.209.57a1.027 1.027 0 01-.236.659c-.034.041-.071.08-.111.118L63 74h-.996l.012-1.72zm-.92-3.915l-.014 2.22-.174-.056a2.508 2.508 0 01-.503-.234 1.116 1.116 0 01-.359-.342.855.855 0 01-.131-.477.97.97 0 01.2-.588c.13-.172.32-.308.566-.409.123-.05.258-.087.406-.112l.01-.002z"
      fill="#A4D886" />
    <path
      d="M61 76v9.75H43V76h18zm-.375.375h-17.25v9h17.25v-9zm-.914.376c.069.263.276.47.539.538v7.172a.751.751 0 00-.539.539H44.29a.751.751 0 00-.538-.539V77.29a.751.751 0 00.538-.538H59.71zM52.318 78h-.54l-.003.547-.118.012a2.41 2.41 0 00-.476.11l-.11.042a1.633 1.633 0 00-.683.496c-.167.213-.25.46-.25.743 0 .344.124.62.372.826.207.173.477.309.81.408l.207.055.229.055-.01 1.416-.064-.01a1.477 1.477 0 01-.102-.023l-.098-.03a.891.891 0 01-.385-.248.66.66 0 01-.15-.297l-.018-.12H50c.014.319.104.59.271.811.167.222.4.39.697.506.223.087.477.141.76.163h.013l-.003.538h.54l.003-.536h.011c.26-.018.493-.062.698-.133l.1-.038c.295-.12.52-.286.676-.499.156-.213.234-.46.234-.742 0-.207-.042-.389-.127-.543a1.237 1.237 0 00-.345-.397c-.145-.109-.309-.2-.491-.271a3.567 3.567 0 00-.374-.124l-.195-.047-.168-.04.009-1.339.022.003c.12.022.228.057.322.107l.068.04c.14.092.233.212.276.361l.023.118h.909a1.19 1.19 0 00-.247-.719 1.58 1.58 0 00-.658-.49 2.3 2.3 0 00-.704-.166h-.006l.004-.545zm-.023 3.425l.037.01c.067.02.13.04.19.06l.087.034c.14.055.25.124.327.206a.442.442 0 01.12.31.545.545 0 01-.135.36.863.863 0 01-.365.24c-.078.028-.161.049-.252.063l-.018.003.009-1.286zm-.526-2.135l-.008 1.211-.1-.03a1.465 1.465 0 01-.287-.128.626.626 0 01-.205-.187.45.45 0 01-.075-.26.514.514 0 01.115-.321.747.747 0 01.323-.223c.07-.027.148-.048.232-.061h.005z"
      fill="#C9D8C0" />
  </g>
</svg>
